assets/images/front_logo.svg

<?xml version="1.0" encoding="UTF-8" standalone="no"?>
<!DOCTYPE svg PUBLIC "-//W3C//DTD SVG 1.1//EN" "http://www.w3.org/Graphics/SVG/1.1/DTD/svg11.dtd">
<svg width="100%" height="100%" viewBox="0 0 1350 2000" version="1.1" xmlns="http://www.w3.org/2000/svg" xmlns:xlink="http://www.w3.org/1999/xlink" xml:space="preserve" xmlns:serif="http://www.serif.com/" style="fill-rule:evenodd;clip-rule:evenodd;stroke-linejoin:round;stroke-miterlimit:2;">
    <g transform="matrix(0.243772,0,0,0.243772,338.342,954.461)">
        <g transform="matrix(1,0,0,1,-1272,-2400.5)">
            <g transform="matrix(0.1,0,0,-0.1,0,4801)">
                <path d="M12786,46703C12783,46700 12815,46657 12858,46608C13033,46404 13140,46256 13186,46151C13292,45912 13328,45336 13260,44945C13174,44449 13023,43981 12815,43570C12625,43194 12390,42838 11485,41545C11049,40923 10946,40779 10534,40220C9829,39264 9615,38946 9297,38394C8869,37649 8304,36536 7845,35534C7364,34484 7178,33952 6976,33055C6823,32373 6740,31826 6698,31215C6681,30967 6681,29864 6698,29580C6742,28856 6843,28178 7025,27395C7138,26907 7210,26685 7518,25880C7595,25679 7683,25443 7715,25355C7747,25267 7824,25060 7887,24895C8157,24189 8217,23999 8279,23655C8328,23385 8342,23242 8343,23035C8344,22698 8290,22516 8097,22198C7868,21821 7593,21517 7396,21420C7088,21269 6475,21421 6111,21739C5724,22076 5111,23120 4612,24290C4231,25184 4077,25684 3836,26800C3657,27630 3571,28176 3528,28755C3511,28978 3512,30027 3528,30370C3582,31471 3637,31746 4037,32941C4191,33402 4202,33440 4195,33485L4188,33534L4087,33429C4031,33372 3891,33232 3776,33120C3331,32685 3169,32478 2888,31985C2615,31506 2344,30947 2175,30515C1908,29831 1522,28471 1350,27610C1279,27251 1200,26752 1150,26340C1089,25833 1069,25525 1063,24957C1057,24438 1066,24180 1101,23796C1163,23114 1337,22141 1506,21530C1630,21081 1912,20305 2168,19710C2416,19132 2707,18559 3015,18045C3623,17028 4420,16171 5960,14879C6590,14351 7060,13988 8195,13155C9119,12477 9377,12285 10790,11225C11612,10608 12357,10048 12445,9982C12541,9909 12614,9860 12628,9860C12642,9860 12705,9904 12798,9978C12879,10043 13447,10494 14060,10980C14673,11466 15654,12247 16240,12715C19303,15162 19748,15553 20836,16755C21914,17946 22553,18751 22986,19460C23469,20252 23678,20803 23804,21620C23926,22409 23993,23485 23961,24135C23931,24743 23848,25346 23718,25910C23555,26618 23220,27473 22882,28045C22748,28272 22605,28467 22391,28715C22272,28853 21800,29329 21595,29519C21034,30036 20854,30170 20130,30604C19834,30781 19726,30836 19695,30824C19674,30815 19676,30807 19711,30774C19771,30717 20189,30101 20348,29835C20558,29483 20826,28870 20956,28443C21078,28041 21241,27242 21295,26780C21372,26124 21239,25299 20988,24880C20772,24520 20259,24113 19902,24019C19791,23989 19576,23982 19450,24004C19193,24049 18976,24159 18786,24340C18432,24677 17887,25492 17660,26024C17481,26444 17298,27078 17115,27915C16898,28907 16749,30004 16696,31005C16658,31699 16651,32719 16680,33145C16721,33758 16829,34236 17070,34875C17285,35444 17762,36382 18083,36865C18261,37133 18435,37301 18797,37551C19058,37731 19169,37823 19170,37858C19170,37874 19171,37874 19093,37844C19055,37830 18894,37774 18734,37719C18245,37554 17981,37450 17749,37335C17433,37177 17248,37029 16784,36566C16332,36113 16024,35755 15825,35451C15490,34940 14960,33787 14711,33030C14603,32700 14510,32311 14441,31900C14389,31594 14382,31506 14370,31075C14358,30642 14348,30556 14295,30435C14254,30343 14187,30249 14111,30178C13985,30059 13872,30026 13740,30070C13559,30130 13286,30316 13136,30482C12891,30751 12610,31323 12486,31805C12410,32097 12350,32569 12320,33100C12307,33329 12307,33893 12320,34095C12374,34943 12515,35840 12681,36394C12803,36801 13033,37381 13365,38115C13639,38722 13680,38800 14053,39455C14327,39934 14475,40218 14548,40405C14735,40884 14852,41345 14902,41805C14919,41959 14919,42475 14902,42675C14842,43383 14725,43982 14566,44388C14375,44875 13922,45686 13635,46055C13513,46212 13241,46456 13056,46576C12918,46665 12906,46672 12878,46681C12862,46686 12837,46694 12821,46699C12805,46704 12789,46706 12786,46703ZM10103,33444C10092,33351 10075,33225 10050,33065C9992,32682 9986,32612 9985,32310C9985,31998 9987,31981 10061,31560C10175,30919 10393,29998 10521,29617C10624,29310 10737,29075 11030,28555C11350,27986 11593,27611 11813,27345C12054,27053 12574,26544 12850,26329C13102,26132 13403,25984 13649,25934C13860,25892 14051,25947 14294,26118C14512,26271 14639,26444 14779,26776C14930,27137 14974,27327 15010,27785C15017,27868 15026,27939 15030,27944C15040,27955 15076,27887 15090,27829C15096,27805 15130,27493 15165,27135C15371,25083 15444,24624 15677,23905C15966,23012 16717,21336 17101,20729C17357,20323 17666,20016 17979,19856C18225,19731 18485,19674 18700,19700C19085,19747 19531,19951 19935,20265C20343,20582 21101,21309 21401,21670C21542,21839 21761,22136 21998,22481C22113,22648 22215,22793 22224,22803C22266,22848 22271,22783 22236,22660C22222,22613 22161,22395 22100,22175C21734,20857 21563,20418 21127,19675C20690,18932 20193,18212 19750,17680C19149,16960 18294,16085 17540,15419C16951,14899 15389,13590 13370,11925C13131,11728 12878,11519 12808,11461C12662,11340 12641,11328 12602,11351C12587,11360 12379,11514 12140,11695C9945,13352 9603,13609 9240,13870C8431,14452 8262,14590 7658,15168C7280,15529 6802,16027 6460,16415C6095,16830 5529,17554 5086,18173C4590,18867 4022,19832 3756,20433C3637,20702 3511,21140 3391,21702C3352,21882 3340,21961 3340,22025C3340,22091 3343,22110 3354,22110C3363,22110 3374,22084 3385,22038C3419,21900 3827,21157 4010,20900C4205,20626 4646,20202 5090,19859C5322,19680 5758,19382 6040,19208C6468,18946 6735,18819 7063,18726C7495,18602 7924,18536 8295,18538C8582,18539 8746,18568 9009,18667C9377,18805 9861,19089 10170,19348C10580,19693 11018,20219 11190,20575C11308,20820 11378,21115 11411,21509C11426,21690 11417,22068 11395,22200C11355,22440 11263,22715 11087,23125C10737,23936 10751,23906 10528,24365C10341,24749 10282,24878 10200,25085C10021,25533 9761,26313 9636,26775C9471,27387 9320,28335 9254,29180C9207,29768 9262,31060 9360,31703C9425,32127 9615,32733 9772,33015C9838,33135 10013,33398 10055,33443C10084,33474 10106,33474 10103,33444Z" style="fill:white;fill-rule:nonzero;"/>
                <path d="M24125,17397C24048,17335 23953,17259 23915,17228C23764,17105 12656,8627 12645,8627C12639,8627 10161,10514 7139,12821C4118,15129 1573,17071 1485,17137C1397,17204 1256,17313 1172,17380C1064,17465 1012,17500 997,17498L975,17495L972,15949L970,14404L997,14378C1013,14364 3634,12360 6823,9926C10904,6811 12628,5500 12645,5500C12663,5500 14385,6810 18462,9921C21648,12353 24270,14357 24288,14373L24320,14404L24318,15954L24315,17505L24290,17507C24272,17508 24228,17479 24125,17397Z" style="fill:white;fill-rule:nonzero;"/>
                <path d="M24135,12893C24052,12828 23953,12749 23915,12718C23726,12564 12659,4120 12645,4120C12634,4120 1633,12508 1540,12588C1532,12595 1480,12634 1425,12674C1370,12715 1253,12805 1165,12874C1078,12944 999,12999 990,12998C977,12995 975,12828 972,11440L970,9885L6797,5435C10048,2954 12634,986 12645,986C12656,986 15194,2916 18493,5435L24320,9884L24318,11445C24315,12840 24313,13005 24300,13008C24291,13009 24217,12958 24135,12893Z" style="fill:white;fill-rule:nonzero;"/>
            </g>
        </g>
    </g>
    <g transform="matrix(-0.74918,-0.74918,-0.742506,0.742506,1827.82,1047.57)">
        <g transform="matrix(0.693674,-5.55112e-17,5.55112e-17,0.693674,186.251,301.536)">
            <path d="M554.656,23.509C554.656,14.41 547.346,7.034 538.328,7.034C486.507,7.034 326.115,7.034 274.293,7.034C265.276,7.034 257.966,14.41 257.966,23.509C257.966,75.437 257.966,235.322 257.966,287.25C257.966,296.349 265.276,303.724 274.293,303.724C326.115,303.724 486.507,303.724 538.328,303.724C547.346,303.724 554.656,296.349 554.656,287.25C554.656,235.322 554.656,75.437 554.656,23.509ZM502.791,58.899L309.831,58.899L309.831,251.859L502.791,251.859L502.791,58.899Z" style="fill:white;"/>
        </g>
        <g transform="matrix(0.693674,-5.55112e-17,5.55112e-17,0.693674,186.251,1426.12)">
            <path d="M554.656,23.509C554.656,14.41 547.346,7.034 538.328,7.034C486.507,7.034 326.115,7.034 274.293,7.034C265.276,7.034 257.966,14.41 257.966,23.509C257.966,75.437 257.966,235.322 257.966,287.25C257.966,296.349 265.276,303.724 274.293,303.724C326.115,303.724 486.507,303.724 538.328,303.724C547.346,303.724 554.656,296.349 554.656,287.25C554.656,235.322 554.656,75.437 554.656,23.509ZM502.791,58.899L309.831,58.899L309.831,251.859L502.791,251.859L502.791,58.899Z" style="fill:white;"/>
        </g>
        <g transform="matrix(0.693674,-5.55112e-17,5.55112e-17,0.693674,1302.95,301.536)">
            <path d="M554.656,23.509C554.656,14.41 547.346,7.034 538.328,7.034C486.507,7.034 326.115,7.034 274.293,7.034C265.276,7.034 257.966,14.41 257.966,23.509C257.966,75.437 257.966,235.322 257.966,287.25C257.966,296.349 265.276,303.724 274.293,303.724L538.328,303.724C547.346,303.724 554.656,296.349 554.656,287.25C554.656,235.322 554.656,75.437 554.656,23.509ZM502.791,58.899L309.831,58.899L309.831,251.859L502.791,251.859L502.791,58.899Z" style="fill:white;"/>
        </g>
        <g transform="matrix(1.20609,-3.39394e-32,-3.13573e-32,1.20609,-326.603,-112.521)">
            <path d="M1620,731.655C1620,737.974 1617.5,744.031 1613.05,748.48C1600.7,760.826 1574.87,786.656 1560.26,801.267C1558.46,803.062 1555.78,803.592 1553.44,802.611C1551.11,801.63 1549.59,799.33 1549.59,796.78L1549.59,555.467C1549.59,552.954 1550.58,550.544 1552.34,548.767C1554.1,546.99 1556.49,545.992 1558.98,545.992L1610.61,545.992C1613.1,545.992 1615.49,546.99 1617.25,548.767C1619.01,550.544 1620,552.954 1620,555.467L1620,731.655Z" style="fill:white;"/>
        </g>
        <g transform="matrix(3.39053e-16,-1.21693,-1.19534,-3.39053e-16,2101.07,2337.9)">
            <path d="M1620,731.655C1620,737.974 1617.5,744.031 1613.05,748.48C1600.7,760.826 1574.87,786.656 1560.26,801.267C1558.46,803.062 1555.78,803.592 1553.44,802.611C1551.11,801.63 1549.59,799.33 1549.59,796.78L1549.59,555.467C1549.59,552.954 1550.58,550.544 1552.34,548.767C1554.1,546.99 1556.49,545.992 1558.98,545.992L1610.61,545.992C1613.1,545.992 1615.49,546.99 1617.25,548.767C1619.01,550.544 1620,552.954 1620,555.467L1620,731.655Z" style="fill:white;"/>
        </g>
        <g transform="matrix(-3.39053e-16,1.21693,1.19534,3.39053e-16,-47.8761,-1519.26)">
            <path d="M1620,731.655C1620,737.974 1617.5,744.031 1613.05,748.48C1600.7,760.826 1574.87,786.656 1560.26,801.267C1558.46,803.062 1555.78,803.592 1553.44,802.611C1551.11,801.63 1549.59,799.33 1549.59,796.78L1549.59,555.467C1549.59,552.954 1550.58,550.544 1552.34,548.767C1554.1,546.99 1556.49,545.992 1558.98,545.992L1610.61,545.992C1613.1,545.992 1615.49,546.99 1617.25,548.767C1619.01,550.544 1620,552.954 1620,555.467L1620,731.655Z" style="fill:white;"/>
        </g>
        <g transform="matrix(-1.20609,-2.46519e-31,-3.45127e-31,-1.20609,2379.5,2055.74)">
            <path d="M1620,731.655C1620,737.974 1617.5,744.031 1613.05,748.48C1600.7,760.826 1574.87,786.656 1560.26,801.267C1558.46,803.062 1555.78,803.592 1553.44,802.611C1551.11,801.63 1549.59,799.33 1549.59,796.78L1549.59,555.467C1549.59,552.954 1550.58,550.544 1552.34,548.767C1554.1,546.99 1556.49,545.992 1558.98,545.992L1610.61,545.992C1613.1,545.992 1615.49,546.99 1617.25,548.767C1619.01,550.544 1620,552.954 1620,555.467L1620,731.655Z" style="fill:white;"/>
        </g>
        <g transform="matrix(1.20609,3.45127e-31,5.42342e-31,1.20609,-1443.3,-112.521)">
            <path d="M1620,731.655C1620,737.974 1617.5,744.031 1613.05,748.48C1600.7,760.826 1574.87,786.656 1560.26,801.267C1558.46,803.062 1555.78,803.592 1553.44,802.611C1551.11,801.63 1549.59,799.33 1549.59,796.78L1549.59,555.467C1549.59,552.954 1550.58,550.544 1552.34,548.767C1554.1,546.99 1556.49,545.992 1558.98,545.992L1610.61,545.992C1613.1,545.992 1615.49,546.99 1617.25,548.767C1619.01,550.544 1620,552.954 1620,555.467L1620,731.655Z" style="fill:white;"/>
        </g>
        <g transform="matrix(-3.39053e-16,1.21693,1.19534,3.39053e-16,-47.8761,-394.678)">
            <path d="M1620,731.655C1620,737.974 1617.5,744.031 1613.05,748.48C1600.7,760.826 1574.87,786.656 1560.26,801.267C1558.46,803.062 1555.78,803.592 1553.44,802.611C1551.11,801.63 1549.59,799.33 1549.59,796.78L1549.59,555.467C1549.59,552.954 1550.58,550.544 1552.34,548.767C1554.1,546.99 1556.49,545.992 1558.98,545.992L1610.61,545.992C1613.1,545.992 1615.49,546.99 1617.25,548.767C1619.01,550.544 1620,552.954 1620,555.467L1620,731.655Z" style="fill:white;"/>
        </g>
    </g>
</svg>

<?xml version="1.0" encoding="UTF-8" standalone="no"?>
<svg
   xmlns:dc="http://purl.org/dc/elements/1.1/"
   xmlns:cc="http://creativecommons.org/ns#"
   xmlns:rdf="http://www.w3.org/1999/02/22-rdf-syntax-ns#"
   xmlns:svg="http://www.w3.org/2000/svg"
   xmlns="http://www.w3.org/2000/svg"
   id="svg8"
   version="1.1"
   viewBox="0 0 152 297"
   height="297mm"
   width="152mm">
  <defs
     id="defs2" />
  <metadata
     id="metadata5">
    <rdf:RDF>
      <cc:Work
         rdf:about="">
        <dc:format>image/svg+xml</dc:format>
        <dc:type
           rdf:resource="http://purl.org/dc/dcmitype/StillImage" />
        <dc:title></dc:title>
      </cc:Work>
    </rdf:RDF>
  </metadata>
  <g
     id="layer1">
    <g
       transform="matrix(0.26458333,0,0,0.26458333,10.3962,-221.4947)"
       id="g916"
       style="clip-rule:evenodd;fill-rule:evenodd;stroke-linejoin:round;stroke-miterlimit:2">
      <g
         style="fill:#38d738;fill-opacity:1"
         transform="matrix(0.243772,0,0,0.243772,251.07287,1395.6842)"
         id="g843">
        <g
   style="fill:#38d738;fill-opacity:1"
   transform="translate(-1272,-2400.5)"
   id="g841">
            <g
   style="fill:#38d738;fill-opacity:1"
   transform="matrix(0.1,0,0,-0.1,0,4801)"
   id="g839">
                <path
   d="m 12786,46703 c -3,-3 29,-46 72,-95 175,-204 282,-352 328,-457 106,-239 142,-815 74,-1206 -86,-496 -237,-964 -445,-1375 -190,-376 -425,-732 -1330,-2025 -436,-622 -539,-766 -951,-1325 -705,-956 -919,-1274 -1237,-1826 -428,-745 -993,-1858 -1452,-2860 -481,-1050 -667,-1582 -869,-2479 -153,-682 -236,-1229 -278,-1840 -17,-248 -17,-1351 0,-1635 44,-724 145,-1402 327,-2185 113,-488 185,-710 493,-1515 77,-201 165,-437 197,-525 32,-88 109,-295 172,-460 270,-706 330,-896 392,-1240 49,-270 63,-413 64,-620 1,-337 -53,-519 -246,-837 -229,-377 -504,-681 -701,-778 -308,-151 -921,1 -1285,319 -387,337 -1000,1381 -1499,2551 -381,894 -535,1394 -776,2510 -179,830 -265,1376 -308,1955 -17,223 -16,1272 0,1615 54,1101 109,1376 509,2571 154,461 165,499 158,544 l -7,49 -101,-105 c -56,-57 -196,-197 -311,-309 -445,-435 -607,-642 -888,-1135 -273,-479 -544,-1038 -713,-1470 -267,-684 -653,-2044 -825,-2905 -71,-359 -150,-858 -200,-1270 -61,-507 -81,-815 -87,-1383 -6,-519 3,-777 38,-1161 62,-682 236,-1655 405,-2266 124,-449 406,-1225 662,-1820 248,-578 539,-1151 847,-1665 608,-1017 1405,-1874 2945,-3166 630,-528 1100,-891 2235,-1724 924,-678 1182,-870 2595,-1930 822,-617 1567,-1177 1655,-1243 96,-73 169,-122 183,-122 14,0 77,44 170,118 81,65 649,516 1262,1002 613,486 1594,1267 2180,1735 3063,2447 3508,2838 4596,4040 1078,1191 1717,1996 2150,2705 483,792 692,1343 818,2160 122,789 189,1865 157,2515 -30,608 -113,1211 -243,1775 -163,708 -498,1563 -836,2135 -134,227 -277,422 -491,670 -119,138 -591,614 -796,804 -561,517 -741,651 -1465,1085 -296,177 -404,232 -435,220 -21,-9 -19,-17 16,-50 60,-57 478,-673 637,-939 210,-352 478,-965 608,-1392 122,-402 285,-1201 339,-1663 77,-656 -56,-1481 -307,-1900 -216,-360 -729,-767 -1086,-861 -111,-30 -326,-37 -452,-15 -257,45 -474,155 -664,336 -354,337 -899,1152 -1126,1684 -179,420 -362,1054 -545,1891 -217,992 -366,2089 -419,3090 -38,694 -45,1714 -16,2140 41,613 149,1091 390,1730 215,569 692,1507 1013,1990 178,268 352,436 714,686 261,180 372,272 373,307 0,16 1,16 -77,-14 -38,-14 -199,-70 -359,-125 -489,-165 -753,-269 -985,-384 -316,-158 -501,-306 -965,-769 -452,-453 -760,-811 -959,-1115 -335,-511 -865,-1664 -1114,-2421 -108,-330 -201,-719 -270,-1130 -52,-306 -59,-394 -71,-825 -12,-433 -22,-519 -75,-640 -41,-92 -108,-186 -184,-257 -126,-119 -239,-152 -371,-108 -181,60 -454,246 -604,412 -245,269 -526,841 -650,1323 -76,292 -136,764 -166,1295 -13,229 -13,793 0,995 54,848 195,1745 361,2299 122,407 352,987 684,1721 274,607 315,685 688,1340 274,479 422,763 495,950 187,479 304,940 354,1400 17,154 17,670 0,870 -60,708 -177,1307 -336,1713 -191,487 -644,1298 -931,1667 -122,157 -394,401 -579,521 -138,89 -150,96 -178,105 -16,5 -41,13 -57,18 -16,5 -32,7 -35,4 z M 10103,33444 c -11,-93 -28,-219 -53,-379 -58,-383 -64,-453 -65,-755 0,-312 2,-329 76,-750 114,-641 332,-1562 460,-1943 103,-307 216,-542 509,-1062 320,-569 563,-944 783,-1210 241,-292 761,-801 1037,-1016 252,-197 553,-345 799,-395 211,-42 402,13 645,184 218,153 345,326 485,658 151,361 195,551 231,1009 7,83 16,154 20,159 10,11 46,-57 60,-115 6,-24 40,-336 75,-694 206,-2052 279,-2511 512,-3230 289,-893 1040,-2569 1424,-3176 256,-406 565,-713 878,-873 246,-125 506,-182 721,-156 385,47 831,251 1235,565 408,317 1166,1044 1466,1405 141,169 360,466 597,811 115,167 217,312 226,322 42,45 47,-20 12,-143 -14,-47 -75,-265 -136,-485 -366,-1318 -537,-1757 -973,-2500 -437,-743 -934,-1463 -1377,-1995 -601,-720 -1456,-1595 -2210,-2261 -589,-520 -2151,-1829 -4170,-3494 -239,-197 -492,-406 -562,-464 -146,-121 -167,-133 -206,-110 -15,9 -223,163 -462,344 -2195,1657 -2537,1914 -2900,2175 -809,582 -978,720 -1582,1298 -378,361 -856,859 -1198,1247 -365,415 -931,1139 -1374,1758 -496,694 -1064,1659 -1330,2260 -119,269 -245,707 -365,1269 -39,180 -51,259 -51,323 0,66 3,85 14,85 9,0 20,-26 31,-72 34,-138 442,-881 625,-1138 195,-274 636,-698 1080,-1041 232,-179 668,-477 950,-651 428,-262 695,-389 1023,-482 432,-124 861,-190 1232,-188 287,1 451,30 714,129 368,138 852,422 1161,681 410,345 848,871 1020,1227 118,245 188,540 221,934 15,181 6,559 -16,691 -40,240 -132,515 -308,925 -350,811 -336,781 -559,1240 -187,384 -246,513 -328,720 -179,448 -439,1228 -564,1690 -165,612 -316,1560 -382,2405 -47,588 8,1880 106,2523 65,424 255,1030 412,1312 66,120 241,383 283,428 29,31 51,31 48,1 z"
   style="fill:#38d738;fill-opacity:1;fill-rule:nonzero"
   id="path833" />

                <path
   d="m 24125,17397 c -77,-62 -172,-138 -210,-169 -151,-123 -11259,-8601 -11270,-8601 -6,0 -2484,1887 -5506,4194 -3021,2308 -5566,4250 -5654,4316 -88,67 -229,176 -313,243 -108,85 -160,120 -175,118 l -22,-3 -3,-1546 -2,-1545 27,-26 c 16,-14 2637,-2018 5826,-4452 4081,-3115 5805,-4426 5822,-4426 18,0 1740,1310 5817,4421 3186,2432 5808,4436 5826,4452 l 32,31 -2,1550 -3,1551 -25,2 c -18,1 -62,-28 -165,-110 z"
   style="fill:#38d738;fill-opacity:1;fill-rule:nonzero"
   id="path835" />

                <path
   d="m 24135,12893 c -83,-65 -182,-144 -220,-175 -189,-154 -11256,-8598 -11270,-8598 -11,0 -11012,8388 -11105,8468 -8,7 -60,46 -115,86 -55,41 -172,131 -260,200 -87,70 -166,125 -175,124 -13,-3 -15,-170 -18,-1558 L 970,9885 6797,5435 c 3251,-2481 5837,-4449 5848,-4449 11,0 2549,1930 5848,4449 l 5827,4449 -2,1561 c -3,1395 -5,1560 -18,1563 -9,1 -83,-50 -165,-115 z"
   style="fill:#38d738;fill-opacity:1;fill-rule:nonzero"
   id="path837" />

            </g>

        </g>

    </g>
    </g>
  </g>
</svg>
